X:12
T:Polska efter Hultkl\"appen
R:polska J
A:H\"alsingland
Z:id:hn-jp-12
M:3/4
L:1/16
K:Am
A2E2 E2A2 ABcA|B2^G2 G2B2 BcdB|cBA^G ABcd e2^f^g|a2e2 e=fed cBA^G|
A2E2 E2A2 ABcA|B2^G2 G2B2 BcdB|cBA^G ABcd e2cA|E^GBG A8:|
|:e2^f^g a2fa f2d2|d2e^f =g2B2 c2d2|e2de =f2d2 e2c2|BA^GA BA^GA E4|
e2^f^g a2fa f2d2|d2e^f =g2B2 c2d2|e2de =f2d2 e2c2|BA^GA B4 A4:|
<end>
<start>
